assets/img/braze_icons/grid-03.svg

<svg fill="none" height="24" viewBox="0 0 24 24" width="24" xmlns="http://www.w3.org/2000/svg"><g fill="#801ed7"><path d="m17.8 4c.5766 0 .9488.00078 1.2322.02393.2716.0222.3723.05987.4218.08507.1882.09587.3411.24885.437.43701.0252.04945.0629.15017.0851.42183.0231.28334.0239.65561.0239 1.23216v1.8c0 .55229.4477 1 1 1s1-.44771 1-1v-1.83854c0-.52715 0-.98191-.0306-1.35649-.0323-.39534-.1036-.78856-.2964-1.16694-.2876-.56449-.7465-1.02343-1.311-1.31105-.3784-.19279-.7716-.26411-1.167-.29641-.3745-.0306-.8293-.03059-1.3564-.03057h-1.8386c-.5523 0-1 .44772-1 1 0 .55229.4477 1 1 1z"/><path d="m6.16146 2h1.83854c.55229 0 1 .44772 1 1 0 .55229-.44771 1-1 1h-1.8c-.57655 0-.94882.00078-1.23216.02393-.27166.0222-.37238.05987-.42183.08507-.18816.09587-.34114.24885-.43701.43701-.0252.04945-.06287.15017-.08507.42183-.02315.28334-.02393.65561-.02393 1.23216v1.8c0 .55229-.44771 1-1 1-.55228 0-1-.44771-1-1v-1.83854c-.00002-.52713-.00003-.98192.03057-1.35649.0323-.39534.10362-.78856.29641-1.16694.28762-.56449.74656-1.02343 1.31105-1.31105.37838-.19279.7716-.26411 1.16694-.29641.37457-.0306.82936-.03059 1.35649-.03057z"/><path d="m3 15c.55229 0 1 .4477 1 1v1.8c0 .5766.00078.9488.02393 1.2322.0222.2716.05987.3723.08507.4218.09587.1882.24885.3411.43701.437.04945.0252.15017.0629.42183.0851.28334.0231.65561.0239 1.23216.0239h1.8c.55229 0 1 .4477 1 1s-.44771 1-1 1h-1.83854c-.52715 0-.98191 0-1.35649-.0306-.39534-.0323-.78856-.1036-1.16694-.2964-.56449-.2876-1.02343-.7465-1.31105-1.311-.19279-.3784-.26411-.7716-.29641-1.167-.0306-.3745-.03059-.8293-.03057-1.3564v-1.8386c0-.5523.44772-1 1-1z"/><path d="m21 15c.5523 0 1 .4477 1 1v1.8385c0 .5272 0 .982-.0306 1.3565-.0323.3954-.1036.7886-.2964 1.167-.2876.5645-.7465 1.0234-1.311 1.311-.3784.1928-.7716.2641-1.167.2964-.3745.0306-.8293.0306-1.3565.0306h-1.8385c-.5523 0-1-.4477-1-1s.4477-1 1-1h1.8c.5766 0 .9488-.0008 1.2322-.0239.2716-.0222.3723-.0599.4218-.0851.1882-.0959.3411-.2488.437-.437.0252-.0495.0629-.1502.0851-.4218.0231-.2834.0239-.6556.0239-1.2322v-1.8c0-.5523.4477-1 1-1z"/><path d="m16 12c0 2.2091-1.7909 4-4 4-2.20914 0-4-1.7909-4-4 0-2.20914 1.79086-4 4-4 2.2091 0 4 1.79086 4 4z"/></g></svg>

<svg width="24" height="24" viewBox="0 0 24 24" fill="none" xmlns="http://www.w3.org/2000/svg">
<path d="M17.8 4C18.3766 4 18.7488 4.00078 19.0322 4.02393C19.3038 4.04613 19.4045 4.0838 19.454 4.109C19.6422 4.20487 19.7951 4.35785 19.891 4.54601C19.9162 4.59546 19.9539 4.69618 19.9761 4.96784C19.9992 5.25118 20 5.62345 20 6.2V8C20 8.55229 20.4477 9 21 9C21.5523 9 22 8.55229 22 8V6.16146C22 5.63431 22 5.17955 21.9694 4.80497C21.9371 4.40963 21.8658 4.01641 21.673 3.63803C21.3854 3.07354 20.9265 2.6146 20.362 2.32698C19.9836 2.13419 19.5904 2.06287 19.195 2.03057C18.8205 1.99997 18.3657 1.99998 17.8386 2H16C15.4477 2 15 2.44772 15 3C15 3.55229 15.4477 4 16 4L17.8 4Z" fill="#801ED7"/>
<path d="M6.16146 2H8C8.55229 2 9 2.44772 9 3C9 3.55229 8.55229 4 8 4H6.2C5.62345 4 5.25118 4.00078 4.96784 4.02393C4.69618 4.04613 4.59546 4.0838 4.54601 4.109C4.35785 4.20487 4.20487 4.35785 4.109 4.54601C4.0838 4.59546 4.04613 4.69618 4.02393 4.96784C4.00078 5.25118 4 5.62345 4 6.2V8C4 8.55229 3.55229 9 3 9C2.44772 9 2 8.55229 2 8V6.16146C1.99998 5.63433 1.99997 5.17954 2.03057 4.80497C2.06287 4.40963 2.13419 4.01641 2.32698 3.63803C2.6146 3.07354 3.07354 2.6146 3.63803 2.32698C4.01641 2.13419 4.40963 2.06287 4.80497 2.03057C5.17954 1.99997 5.63433 1.99998 6.16146 2Z" fill="#801ED7"/>
<path d="M3 15C3.55229 15 4 15.4477 4 16V17.8C4 18.3766 4.00078 18.7488 4.02393 19.0322C4.04613 19.3038 4.0838 19.4045 4.109 19.454C4.20487 19.6422 4.35785 19.7951 4.54601 19.891C4.59546 19.9162 4.69618 19.9539 4.96784 19.9761C5.25118 19.9992 5.62345 20 6.2 20H8C8.55229 20 9 20.4477 9 21C9 21.5523 8.55229 22 8 22H6.16146C5.63431 22 5.17955 22 4.80497 21.9694C4.40963 21.9371 4.01641 21.8658 3.63803 21.673C3.07354 21.3854 2.6146 20.9265 2.32698 20.362C2.13419 19.9836 2.06287 19.5904 2.03057 19.195C1.99997 18.8205 1.99998 18.3657 2 17.8386V16C2 15.4477 2.44772 15 3 15Z" fill="#801ED7"/>
<path d="M21 15C21.5523 15 22 15.4477 22 16V17.8385C22 18.3657 22 18.8205 21.9694 19.195C21.9371 19.5904 21.8658 19.9836 21.673 20.362C21.3854 20.9265 20.9265 21.3854 20.362 21.673C19.9836 21.8658 19.5904 21.9371 19.195 21.9694C18.8205 22 18.3657 22 17.8385 22H16C15.4477 22 15 21.5523 15 21C15 20.4477 15.4477 20 16 20H17.8C18.3766 20 18.7488 19.9992 19.0322 19.9761C19.3038 19.9539 19.4045 19.9162 19.454 19.891C19.6422 19.7951 19.7951 19.6422 19.891 19.454C19.9162 19.4045 19.9539 19.3038 19.9761 19.0322C19.9992 18.7488 20 18.3766 20 17.8V16C20 15.4477 20.4477 15 21 15Z" fill="#801ED7"/>
<path d="M16 12C16 14.2091 14.2091 16 12 16C9.79086 16 8 14.2091 8 12C8 9.79086 9.79086 8 12 8C14.2091 8 16 9.79086 16 12Z" fill="#801ED7"/>
</svg>
